; generated by PrusaSlicer 2.8.0+win64 on 2024-08-16 at 16:38:21 UTC


;
;
; 

; external perimeters extrusion width = 0.45mm
; perimeters extrusion width = 0.45mm
; infill extrusion width = 0.45mm
; solid infill extrusion width = 0.45mm
; top infill extrusion width = 0.40mm
; first layer extrusion width = 0.42mm

M73 P0 R185
M73 Q0 S188
M201 X1000 Y1000 Z200 E5000 ; sets maximum accelerations, mm/sec^2
M203 X200 Y200 Z12 E120 ; sets maximum feedrates, mm / sec
M204 S1250 T1250 ; sets acceleration (S) and retract acceleration (R), mm/sec^2
M205 X8.00 Y8.00 Z0.40 E4.50 ; sets the jerk limits, mm/sec
M205 S0 T0 ; sets the minimum extruding and travel feed rate, mm/sec

; printing object Lifter_TK_simplified.STL id:0 copy 0
; stop printing object Lifter_TK_simplified.STL id:0 copy 0

;TYPE:Custom
M862.3 P "MK3S" ; printer model check
M862.1 P0.4 ; nozzle diameter check
M115 U3.13.3 ; tell printer latest fw version
G90 ; use absolute coordinates
M83 ; extruder relative mode
M104 S215 ; set extruder temp
M140 S60 ; set bed temp
M190 S60 ; wait for bed temp
M109 S215 ; wait for extruder temp
G28 W ; home all without mesh bed level
G80 X6.92292 Y3.17291 W236.154 H206.154 ; mesh bed levelling

G1 Z0.2 F720
G1 Y-3 F1000 ; go outside print area
G92 E0
G1 X60 E9 F1000 ; intro line
G1 X100 E12.5 F1000 ; intro line
M73 P0 R184

G92 E0
M221 S95

; Don't change E values below. Excessive value can damage the printer.

M907 E538 ; set extruder motor current
G21 ; set units to millimeters
G90 ; use absolute coordinates
M83 ; use relative distances for extrusion

M900 K0.05 ; Filament gcode LA 1.5
M900 K30 ; Filament gcode LA 1.0




M107
;LAYER_CHANGE
;Z:0.2
;HEIGHT:0.2
G1 E-1.2 F3000
G1 Z.6 F720
G1 X9.803 Y7.935 F10800
G1 Z.2 F720
G1 E1.2 F3000
M204 S800
;TYPE:Skirt/Brim
;WIDTH:0.42
G1 F1200
G1 X10.229 Y7.409 E.02122
G1 X11.13 Y6.505 E.04002
G1 X12.825 Y5.224 E.06662
G1 X14.752 Y4.242 E.06781
G1 X15.905 Y3.844 E.03824
G1 X16.955 Y3.589 E.03388
G1 X19.106 Y3.363 E.06781
G1 X230.719 Y3.362 E6.63498
G1 X231.945 Y3.425 E.03849
G1 X233.044 Y3.589 E.03484
G1 X234.242 Y3.888 E.03871
G1 X235.283 Y4.256 E.03462
G1 X236.402 Y4.777 E.0387
G1 X238.219 Y5.957 E.06793
G1 X239.153 Y6.769 E.0388
G1 X239.911 Y7.568 E.03453
G1 X240.671 Y8.54 E.03869
G1 X241.265 Y9.472 E.03465
G1 X241.827 Y10.575 E.03881
G1 X242.226 Y11.588 E.03414
G1 X242.572 Y12.79 E.03922
G1 X242.772 Y13.872 E.0345
G1 X242.88 Y15.106 E.03884
G1 X242.886 Y197.182 E5.70887
G1 X242.8 Y198.416 E.03879
M73 Q0 S187
G1 X242.581 Y199.67 E.03991
G1 X242.286 Y200.735 E.03465
G1 X241.827 Y201.925 E.03999
G1 X241.246 Y203.061 E.04001
G1 X240.549 Y204.13 E.04001
G1 X239.771 Y205.091 E.03877
G1 X238.87 Y205.995 E.04002
G1 X237.143 Y207.297 E.06781
G1 X236.216 Y207.819 E.03336
G1 X235.086 Y208.322 E.03878
G1 X233.011 Y208.917 E.06768
G1 X230.893 Y209.137 E.06677
G1 X19.3 Y209.139 E6.63435
G1 X18.045 Y209.074 E.0394
G1 X16.784 Y208.876 E.04002
G1 X15.552 Y208.548 E.03997
G1 X14.36 Y208.093 E.04
G1 X13.222 Y207.515 E.04002
G1 X12.154 Y206.824 E.03988
G1 X11.159 Y206.021 E.04009
G1 X10.255 Y205.12 E.04002
G1 X8.956 Y203.396 E.06768
G1 X8.431 Y202.466 E.03348
G1 X7.932 Y201.346 E.03844
G1 X7.339 Y199.295 E.06694
G1 X7.113 Y197.144 E.06781
G1 X7.112 Y15.531 E5.69435
G1 X7.18 Y14.257 E.04
G1 X7.379 Y13.01 E.03959
G1 X7.714 Y11.765 E.04042
G1 X8.168 Y10.587 E.03958
G1 X8.748 Y9.45 E.04002
G1 X9.448 Y8.374 E.04025
G1 X9.765 Y7.982 E.01581
M204 S1000
;WIPE_START
G1 F8640
G1 X9.803 Y7.935 E-.01994
G1 X10.229 Y7.409 E-.22327
G1 X11.13 Y6.505 E-.42101
G1 X12.426 Y5.525 E-.53578
;WIPE_END
G1 Z.6 F720
; printing object Lifter_TK_simplified.STL id:0 copy 0
G1 X220.569 Y186.807 F10800
G1 Z.2 F720
G1 E1.2 F3000
M204 S800
;TYPE:Perimeter
;WIDTH:0.419999
G1 F1200
G1 X220.518 Y186.868 E.00249
G1 X220.296 Y186.973 E.0077
G1 X219.754 Y186.987 E.017
G1 X29.829 Y186.987 E5.95496
G1 X29.562 Y186.92 E.00863
G1 X29.379 Y186.764 E.00754
G1 X29.274 Y186.531 E.00801
G1 X29.263 Y185.846 E.02148
G1 X29.263 Y26.079 E5.00937
G1 X29.328 Y25.814 E.00856
M73 P0 R183
G1 X29.486 Y25.629 E.00763
G1 X29.719 Y25.524 E.00801
G1 X34.071 Y25.513 E.13645
G1 X220.171 Y25.513 E5.83503
G1 X220.436 Y25.578 E.00856
G1 X220.621 Y25.736 E.00763
G1 X220.726 Y25.969 E.00801
G1 X220.737 Y26.658 E.02161
G1 X220.737 Y186.421 E5.00925
G1 X220.677 Y186.675 E.00818
M73 Q0 S186
G1 X220.607 Y186.761 E.00348
M204 S1000
G1 X220.607 Y186.761 F10800
G1 X220.312 Y186.524
M204 S800
;TYPE:External perimeter
G1 F1200
G1 X220.292 Y186.567 E.00149
G1 X220.171 Y186.61 E.00403
G1 X29.829 Y186.61 E5.96803
G1 X29.683 Y186.542 E.00505
G1 X29.64 Y186.421 E.00403
G1 X29.64 Y26.079 E5.0274
G1 X29.708 Y25.933 E.00505
G1 X29.829 Y25.89 E.00403
G1 X34.071 Y25.89 E.133
G1 X220.171 Y25.89 E5.83503
G1 X220.317 Y25.958 E.00505
M73 P1 R183
M73 Q1 S186
G1 X220.36 Y26.079 E.00403
G1 X220.36 Y186.421 E5.0274
G1 X220.337 Y186.469 E.00167
M73 P1 R182
M204 S1000
;WIPE_START
G1 F8640
G1 X220.312 Y186.524 E-.01993
G1 X220.292 Y186.567 E-.01564
G1 X220.171 Y186.61 E-.04236
G1 X216.769 Y186.61 E-1.12207
;WIPE_END
G1 Z.6 F720
G1 X24.909 Y17.254 F10800
G1 Z.2 F720
G1 E1.2 F3000
M204 S800
;TYPE:Perimeter
G1 F1200
G1 X24.932 Y17.427 E.00547
G1 X24.889 Y18.128 E.02202
G1 X24.716 Y18.789 E.02142
G1 X24.411 Y19.43 E.02226
G1 X23.955 Y20.032 E.02368
G1 X23.429 Y20.496 E.02199
G1 X22.774 Y20.872 E.02368
G1 X22.109 Y21.094 E.02198
G1 X21.418 Y21.183 E.02184
G1 X20.724 Y21.139 E.0218
G1 X20.048 Y20.963 E.0219
G1 X19.42 Y20.661 E.02185
G1 X18.819 Y20.206 E.02364
G1 X18.354 Y19.679 E.02204
G1 X18.002 Y19.078 E.02184
G1 X17.746 Y18.31 E.02538
G1 X17.668 Y17.673 E.02012
G1 X17.711 Y16.972 E.02202
G1 X17.877 Y16.334 E.02067
G1 X18.122 Y15.805 E.01828
G1 X18.39 Y15.394 E.01538
G1 X18.713 Y14.995 E.0161
G1 X19.171 Y14.604 E.01888
G1 X19.667 Y14.311 E.01806
G1 X19.99 Y14.169 E.01106
G1 X20.487 Y14.008 E.01638
G1 X21.182 Y13.917 E.02198
G1 X21.876 Y13.961 E.0218
G1 X22.552 Y14.137 E.0219
G1 X23.18 Y14.439 E.02185
G1 X23.781 Y14.894 E.02364
G1 X24.246 Y15.421 E.02204
G1 X24.598 Y16.022 E.02184
G1 X24.829 Y16.68 E.02187
G1 X24.9 Y17.195 E.0163
M204 S1000
G1 X24.9 Y17.195 F10800
G1 X24.533 Y17.277
M204 S800
;TYPE:External perimeter
G1 F1200
G1 X24.558 Y17.473 E.0062
G1 X24.513 Y18.098 E.01965
G1 X24.353 Y18.689 E.0192
G1 X24.074 Y19.262 E.01998
G1 X23.658 Y19.8 E.02132
G1 X23.184 Y20.209 E.01963
G1 X22.592 Y20.542 E.0213
G1 X21.995 Y20.734 E.01966
G1 X21.375 Y20.808 E.01958
G1 X20.753 Y20.763 E.01955
G1 X20.149 Y20.599 E.01962
G1 X19.588 Y20.323 E.0196
G1 X19.051 Y19.909 E.02126
G1 X18.641 Y19.434 E.01967
G1 X18.33 Y18.892 E.01959
G1 X18.12 Y18.264 E.02076
G1 X18.042 Y17.627 E.02012
G1 X18.087 Y17.002 E.01965
G1 X18.241 Y16.435 E.01842
G1 X18.459 Y15.974 E.01599
G1 X18.688 Y15.626 E.01306
G1 X18.967 Y15.274 E.01408
G1 X19.416 Y14.891 E.0185
G1 X19.853 Y14.639 E.01582
G1 X20.598 Y14.368 E.02486
G1 X21.225 Y14.292 E.0198
G1 X21.847 Y14.337 E.01955
G1 X22.451 Y14.501 E.01962
G1 X23.012 Y14.777 E.0196
G1 X23.549 Y15.191 E.02126
G1 X23.959 Y15.666 E.01967
G1 X24.27 Y16.208 E.01959
G1 X24.472 Y16.799 E.01958
G1 X24.525 Y17.218 E.01324
M204 S1000
;WIPE_START
G1 F8640
G1 X24.533 Y17.277 E-.01964
G1 X24.558 Y17.473 E-.06518
G1 X24.513 Y18.098 E-.2067
G1 X24.353 Y18.689 E-.20197
G1 X24.074 Y19.262 E-.21023
G1 X23.658 Y19.8 E-.22433
G1 X23.184 Y20.209 E-.20651
G1 X23.011 Y20.306 E-.06544
;WIPE_END
G1 Z.6 F720
G1 X23.542 Y192.113 F10800
G1 Z.2 F720
G1 E1.2 F3000
M204 S800
;TYPE:Perimeter
G1 F1200
G1 X23.781 Y192.294 E.0094
G1 X24.246 Y192.821 E.02204
G1 X24.598 Y193.422 E.02184
G1 X24.854 Y194.19 E.02538
G1 X24.932 Y194.827 E.02012
G1 X24.889 Y195.528 E.02202
G1 X24.712 Y196.202 E.02185
G1 X24.38 Y196.88 E.02367
G1 X23.952 Y197.436 E.022
G1 X23.429 Y197.896 E.02184
G1 X22.828 Y198.248 E.02184
G1 X22.17 Y198.479 E.02187
G1 X21.423 Y198.582 E.02364
G1 X20.665 Y198.529 E.02382
G1 X20.151 Y198.388 E.01671
G1 X19.857 Y198.283 E.00979
G1 X19.366 Y198.028 E.01735
G1 X18.762 Y197.555 E.02405
G1 X18.354 Y197.079 E.01966
G1 X18.002 Y196.478 E.02184
G1 X17.759 Y195.768 E.02353
G1 X17.667 Y195.068 E.02214
G1 X17.711 Y194.374 E.0218
G1 X17.887 Y193.698 E.0219
G1 X18.189 Y193.07 E.02185
G1 X18.644 Y192.469 E.02364
G1 X19.171 Y192.004 E.02204
G1 X19.826 Y191.628 E.02368
G1 X20.491 Y191.406 E.02198
G1 X21.182 Y191.317 E.02184
G1 X21.878 Y191.361 E.02187
G1 X22.539 Y191.534 E.02142
G1 X23.18 Y191.839 E.02226
G1 X23.494 Y192.077 E.01235
M204 S1000
G1 X23.494 Y192.077 F10800
G1 X23.304 Y192.402
M204 S800
;TYPE:External perimeter
G1 F1200
G1 X23.549 Y192.591 E.0097
G1 X23.959 Y193.066 E.01967
G1 X24.27 Y193.608 E.01959
G1 X24.438 Y194.098 E.01624
G1 X24.558 Y194.873 E.02459
G1 X24.513 Y195.498 E.01965
G1 X24.349 Y196.101 E.01959
G1 X24.044 Y196.708 E.0213
G1 X23.657 Y197.201 E.01965
G1 X23.184 Y197.609 E.01959
G1 X22.642 Y197.92 E.01959
G1 X22.051 Y198.122 E.01958
G1 X21.377 Y198.208 E.0213
G1 X20.698 Y198.153 E.02136
G1 X20.096 Y197.979 E.01965
G1 X19.557 Y197.702 E.019
G1 X19.031 Y197.291 E.02093
G1 X18.641 Y196.834 E.01884
G1 X18.33 Y196.292 E.01959
G1 X18.118 Y195.651 E.02117
G1 X18.042 Y195.025 E.01977
G1 X18.087 Y194.403 E.01955
G1 X18.251 Y193.799 E.01962
G1 X18.527 Y193.238 E.0196
G1 X18.941 Y192.701 E.02126
G1 X19.416 Y192.291 E.01967
G1 X20.008 Y191.958 E.0213
G1 X20.605 Y191.766 E.01966
G1 X21.225 Y191.692 E.01958
G1 X21.848 Y191.737 E.01958
G1 X22.439 Y191.897 E.0192
G1 X23.012 Y192.177 E.02
G1 X23.256 Y192.365 E.00966
M204 S1000
;WIPE_START
G1 F8640
G1 X23.304 Y192.402 E-.01999
G1 X23.549 Y192.591 E-.10207
G1 X23.959 Y193.066 E-.20698
G1 X24.27 Y193.608 E-.20613
G1 X24.438 Y194.098 E-.17087
G1 X24.558 Y194.873 E-.25869
G1 X24.513 Y195.498 E-.2067
G1 X24.49 Y195.582 E-.02857
;WIPE_END
G1 Z.6 F720
G1 X225.591 Y196.802 F10800
G1 Z.2 F720
G1 E1.2 F3000
M204 S800
;TYPE:Perimeter
G1 F1200
G1 X225.376 Y196.42 E.01374
G1 X225.157 Y195.76 E.0218
G1 X225.067 Y195.068 E.02188
G1 X225.143 Y194.203 E.02723
G1 X225.31 Y193.639 E.01844
G1 X225.622 Y193.016 E.02185
G1 X226.048 Y192.464 E.02186
G1 X226.619 Y191.97 E.02367
G1 X227.23 Y191.626 E.02199
G1 X227.891 Y191.406 E.02184
G1 X228.582 Y191.317 E.02184
G1 X229.278 Y191.361 E.02187
G1 X229.952 Y191.537 E.02184
G1 X230.58 Y191.839 E.02185
G1 X231.181 Y192.294 E.02364
G1 X231.646 Y192.821 E.02204
G1 X231.998 Y193.422 E.02184
G1 X232.229 Y194.079 E.02184
G1 X232.332 Y194.827 E.02367
G1 X232.289 Y195.528 E.02202
G1 X232.113 Y196.202 E.02184
G1 X231.86 Y196.731 E.01839
G1 X231.61 Y197.106 E.01413
G1 X231.286 Y197.506 E.01614
G1 X230.83 Y197.895 E.01879
G1 X230.228 Y198.248 E.02188
G1 X229.57 Y198.479 E.02187
G1 X228.823 Y198.582 E.02364
G1 X228.065 Y198.529 E.02382
G1 X227.389 Y198.34 E.02201
G1 X226.766 Y198.028 E.02185
G1 X226.214 Y197.602 E.02186
G1 X225.72 Y197.031 E.02367
G1 X225.621 Y196.855 E.00633
M204 S1000
G1 X225.621 Y196.855 F10800
G1 X225.914 Y196.616
M204 S800
;TYPE:External perimeter
G1 F1200
G1 X225.707 Y196.24 E.01346
G1 X225.516 Y195.647 E.01953
G1 X225.442 Y195.025 E.01964
G1 X225.504 Y194.31 E.0225
G1 X225.671 Y193.746 E.01844
G1 X225.957 Y193.19 E.0196
G1 X226.343 Y192.699 E.01958
G1 X226.861 Y192.259 E.02131
G1 X227.41 Y191.957 E.01965
G1 X228.005 Y191.766 E.01959
G1 X228.625 Y191.692 E.01958
G1 X229.248 Y191.737 E.01958
G1 X229.851 Y191.901 E.01959
G1 X230.412 Y192.177 E.0196
G1 X230.949 Y192.591 E.02126
G1 X231.359 Y193.066 E.01967
G1 X231.67 Y193.608 E.01959
G1 X231.872 Y194.199 E.01958
G1 X231.958 Y194.873 E.0213
G1 X231.913 Y195.498 E.01965
G1 X231.749 Y196.101 E.01959
G1 X231.523 Y196.563 E.01613
G1 X231.151 Y197.08 E.01997
G1 X230.743 Y197.474 E.01778
G1 X230.337 Y197.753 E.01545
G1 X229.857 Y197.986 E.01673
G1 X229.414 Y198.13 E.01461
G1 X228.777 Y198.208 E.02012
G1 X228.098 Y198.153 E.02136
G1 X227.496 Y197.979 E.01965
G1 X226.94 Y197.693 E.0196
G1 X226.449 Y197.307 E.01958
G1 X226.009 Y196.789 E.02131
G1 X225.943 Y196.668 E.00432
M204 S1000
;WIPE_START
G1 F8640
G1 X225.914 Y196.616 E-.01964
G1 X225.707 Y196.24 E-.14158
G1 X225.516 Y195.647 E-.2055
G1 X225.442 Y195.025 E-.20662
G1 X225.504 Y194.31 E-.23674
G1 X225.671 Y193.746 E-.19403
G1 X225.942 Y193.218 E-.19589
;WIPE_END
G1 Z.6 F720
G1 X227.011 Y14.346 F10800
G1 Z.2 F720
G1 E1.2 F3000
M204 S800
;TYPE:Perimeter
G1 F1200
G1 X227.172 Y14.252 E.00585
G1 X227.887 Y14.008 E.02369
G1 X228.582 Y13.917 E.02198
G1 X229.335 Y13.971 E.02367
G1 X230.011 Y14.16 E.02201
G1 X230.634 Y14.472 E.02185
G1 X231.226 Y14.933 E.02353
G1 X231.597 Y15.363 E.01781
G1 X231.961 Y15.956 E.02182
G1 X232.216 Y16.639 E.02286
G1 X232.332 Y17.427 E.02497
G1 X232.289 Y18.128 E.02202
G1 X232.112 Y18.802 E.02185
G1 X231.811 Y19.43 E.02184
G1 X231.355 Y20.032 E.02368
G1 X230.781 Y20.53 E.02383
G1 X230.17 Y20.874 E.02199
G1 X229.509 Y21.094 E.02184
G1 X228.818 Y21.183 E.02184
G1 X228.124 Y21.139 E.0218
G1 X227.459 Y20.966 E.02154
G1 X226.82 Y20.661 E.0222
G1 X226.219 Y20.206 E.02364
G1 X225.754 Y19.679 E.02204
G1 X225.378 Y19.025 E.02365
G1 X225.156 Y18.359 E.02201
G1 X225.067 Y17.668 E.02184
G1 X225.111 Y16.972 E.02187
G1 X225.287 Y16.298 E.02184
G1 X225.589 Y15.67 E.02185
G1 X226.044 Y15.069 E.02364
G1 X226.571 Y14.604 E.02204
G1 X226.96 Y14.376 E.01414
M204 S1000
G1 X226.96 Y14.376 F10800
G1 X227.182 Y14.681
M204 S800
;TYPE:External perimeter
G1 F1200
G1 X227.358 Y14.58 E.00636
G1 X228.003 Y14.366 E.02131
G1 X228.625 Y14.292 E.01964
G1 X229.302 Y14.347 E.0213
G1 X229.904 Y14.521 E.01965
G1 X230.46 Y14.807 E.0196
G1 X230.964 Y15.204 E.02012
G1 X231.31 Y15.608 E.01668
G1 X231.633 Y16.142 E.01957
G1 X231.858 Y16.759 E.02059
G1 X231.958 Y17.473 E.02261
G1 X231.913 Y18.098 E.01965
G1 X231.749 Y18.701 E.01959
G1 X231.473 Y19.262 E.0196
G1 X231.058 Y19.8 E.0213
G1 X230.539 Y20.241 E.02135
G1 X229.99 Y20.543 E.01965
G1 X229.395 Y20.734 E.01959
G1 X228.775 Y20.808 E.01958
G1 X228.153 Y20.763 E.01955
G1 X227.56 Y20.602 E.01927
G1 X226.988 Y20.323 E.01995
G1 X226.451 Y19.909 E.02126
G1 X226.041 Y19.434 E.01967
G1 X225.708 Y18.842 E.0213
G1 X225.516 Y18.245 E.01966
G1 X225.442 Y17.625 E.01958
G1 X225.487 Y17.002 E.01958
G1 X225.651 Y16.399 E.01959
G1 X225.927 Y15.838 E.0196
G1 X226.341 Y15.301 E.02126
G1 X226.816 Y14.891 E.01967
G1 X227.13 Y14.71 E.01136
M204 S1000
;WIPE_START
G1 F8640
G1 X227.182 Y14.681 E-.01964
G1 X227.358 Y14.58 E-.06694
G1 X228.003 Y14.366 E-.22417
G1 X228.625 Y14.292 E-.20662
G1 X229.302 Y14.347 E-.22405
G1 X229.904 Y14.521 E-.2067
G1 X230.46 Y14.807 E-.20624
G1 X230.569 Y14.893 E-.04564
;WIPE_END
G1 Z.6 F720
G1 X230.7 Y6.339 F10800
G1 Z.2 F720
G1 E1.2 F3000
M204 S800
;TYPE:Perimeter
G1 F1200
G1 X230.85 Y6.339 E.0047
G1 X231.663 Y6.388 E.02554
G1 X232.458 Y6.507 E.0252
G1 X233.105 Y6.662 E.02086
G1 X233.597 Y6.807 E.01608
G1 X234.146 Y7.006 E.01831
G1 X234.755 Y7.284 E.02099
G1 X235.21 Y7.519 E.01606
G1 X235.713 Y7.821 E.0184
G1 X236.256 Y8.208 E.02091
G1 X236.659 Y8.527 E.01612
G1 X237.096 Y8.919 E.01841
G1 X237.656 Y9.51 E.02553
G1 X238.025 Y9.967 E.01842
G1 X238.363 Y10.449 E.01846
G1 X238.75 Y11.076 E.0231
G1 X239.059 Y11.683 E.02136
G1 X239.26 Y12.149 E.01591
G1 X239.459 Y12.695 E.01822
G1 X239.678 Y13.483 E.02564
G1 X239.788 Y14.055 E.01826
G1 X239.854 Y14.562 E.01603
G1 X239.907 Y15.386 E.02589
G1 X239.908 Y197.194 E5.70045
G1 X239.88 Y197.696 E.01576
M73 Q1 S185
G1 X239.789 Y198.442 E.02356
G1 X239.678 Y199.017 E.01836
G1 X239.498 Y199.663 E.02103
G1 X239.301 Y200.251 E.01944
G1 X239.07 Y200.795 E.01853
G1 X238.731 Y201.46 E.0234
G1 X238.426 Y201.968 E.01858
G1 X238.086 Y202.452 E.01855
G1 X237.726 Y202.905 E.01814
G1 X237.29 Y203.385 E.02033
G1 X236.868 Y203.793 E.0184
G1 X236.244 Y204.307 E.02535
G1 X235.582 Y204.763 E.0252
G1 X235.004 Y205.089 E.02081
G1 X234.545 Y205.319 E.0161
G1 X234.006 Y205.549 E.01837
G1 X233.239 Y205.805 E.02535
G1 X232.458 Y205.993 E.02519
G1 X231.663 Y206.112 E.0252
G1 X230.853 Y206.161 E.02544
G1 X19.444 Y206.163 E6.62857
G1 X18.922 Y206.153 E.01637
G1 X18.337 Y206.112 E.01839
G1 X17.755 Y206.03 E.01843
G1 X17.053 Y205.882 E.02249
G1 X16.556 Y205.742 E.01619
G1 X15.998 Y205.551 E.01849
G1 X15.455 Y205.32 E.0185
G1 X14.79 Y204.981 E.0234
G1 X14.282 Y204.676 E.01858
