; generated by PrusaSlicer 2.8.0+win64 on 2024-08-16 at 16:38:37 UTC


;
;
; 

; external perimeters extrusion width = 0.45mm
; perimeters extrusion width = 0.45mm
; infill extrusion width = 0.45mm
; solid infill extrusion width = 0.45mm
; top infill extrusion width = 0.40mm
; first layer extrusion width = 0.42mm

M73 P0 R244
M73 Q0 S256
M201 X1000 Y1000 Z200 E5000 ; sets maximum accelerations, mm/sec^2
M203 X200 Y200 Z12 E120 ; sets maximum feedrates, mm / sec
M204 S1250 T1250 ; sets acceleration (S) and retract acceleration (R), mm/sec^2
M205 X8.00 Y8.00 Z0.40 E4.50 ; sets the jerk limits, mm/sec
M205 S0 T0 ; sets the minimum extruding and travel feed rate, mm/sec

; printing object PCB_holder_TK_simplified.STL id:0 copy 0
; stop printing object PCB_holder_TK_simplified.STL id:0 copy 0

;TYPE:Custom
M862.3 P "MK3S" ; printer model check
M862.1 P0.4 ; nozzle diameter check
M115 U3.13.3 ; tell printer latest fw version
G90 ; use absolute coordinates
M83 ; extruder relative mode
M104 S215 ; set extruder temp
M140 S60 ; set bed temp
M190 S60 ; wait for bed temp
M109 S215 ; wait for extruder temp
G28 W ; home all without mesh bed level
G80 X28.1729 Y23.1729 W193.654 H163.654 ; mesh bed levelling

G1 Z0.2 F720
G1 Y-3 F1000 ; go outside print area
G92 E0
G1 X60 E9 F1000 ; intro line
G1 X100 E12.5 F1000 ; intro line

G92 E0
M221 S95

; Don't change E values below. Excessive value can damage the printer.

M907 E538 ; set extruder motor current
G21 ; set units to millimeters
G90 ; use absolute coordinates
M83 ; use relative distances for extrusion

M900 K0.05 ; Filament gcode LA 1.5
M900 K30 ; Filament gcode LA 1.0




M107
;LAYER_CHANGE
;Z:0.2
;HEIGHT:0.2
G1 E-1.2 F3000
G1 Z.6 F720
G1 X28.752 Y24.302 F10800
G1 Z.2 F720
G1 E1.2 F3000
M204 S800
;TYPE:Skirt/Brim
;WIDTH:0.42
G1 F1200
G1 X29.785 Y23.499 E.04102
G1 X30.55 Y23.361 E.02437
G1 X219.45 Y23.361 E5.92283
G1 X220.698 Y23.752 E.04101
G1 X221.501 Y24.785 E.04102
G1 X221.639 Y25.55 E.02437
G1 X221.639 Y184.45 E4.9822
G1 X221.248 Y185.698 E.04101
G1 X220.215 Y186.501 E.04102
G1 X219.45 Y186.639 E.02437
G1 X30.55 Y186.639 E5.92283
G1 X29.302 Y186.248 E.04101
M73 Q0 S255
G1 X28.499 Y185.215 E.04102
G1 X28.361 Y184.45 E.02437
G1 X28.361 Y25.55 E4.9822
G1 X28.734 Y24.359 E.03913
M204 S1000
;WIPE_START
G1 F8640
G1 X28.752 Y24.302 E-.01972
G1 X29.785 Y23.499 E-.43159
G1 X30.55 Y23.361 E-.25642
G1 X32.042 Y23.361 E-.49227
;WIPE_END
G1 Z.6 F720
; printing object PCB_holder_TK_simplified.STL id:0 copy 0
G1 X36.842 Y178.426 F10800
G1 Z.2 F720
G1 E1.2 F3000
M204 S800
;TYPE:Perimeter
;WIDTH:0.419999
G1 F1200
G1 X37.049 Y178.683 E.01035
G1 X37.262 Y179.099 E.01465
G1 X37.393 Y179.547 E.01463
G1 X37.435 Y180.012 E.01464
G1 X37.388 Y180.476 E.01462
G1 X37.253 Y180.923 E.01464
G1 X37.033 Y181.34 E.01478
G1 X36.71 Y181.733 E.01595
G1 X36.317 Y182.049 E.01581
G1 X35.901 Y182.262 E.01465
G1 X35.453 Y182.393 E.01463
G1 X34.988 Y182.435 E.01464
G1 X34.524 Y182.388 E.01462
G1 X34.077 Y182.253 E.01464
G1 X33.66 Y182.033 E.01478
G1 X33.267 Y181.71 E.01595
G1 X32.951 Y181.317 E.01581
G1 X32.738 Y180.901 E.01465
G1 X32.607 Y180.453 E.01463
G1 X32.565 Y179.988 E.01464
G1 X32.612 Y179.524 E.01462
G1 X32.747 Y179.077 E.01464
G1 X32.967 Y178.66 E.01478
G1 X33.29 Y178.267 E.01595
G1 X33.683 Y177.951 E.01581
G1 X34.099 Y177.738 E.01465
G1 X34.547 Y177.607 E.01463
G1 X35.017 Y177.565 E.0148
G1 X35.518 Y177.62 E.0158
G1 X35.962 Y177.763 E.01463
G1 X36.371 Y177.988 E.01464
G1 X36.733 Y178.29 E.01478
G1 X36.804 Y178.379 E.00357
M204 S1000
G1 X36.804 Y178.379 F10800
G1 X36.553 Y178.664
M204 S800
;TYPE:External perimeter
G1 F1200
G1 X36.717 Y178.863 E.00809
G1 X36.903 Y179.212 E.0124
G1 X37.018 Y179.59 E.01239
G1 X37.059 Y179.982 E.01236
G1 X37.025 Y180.375 E.01237
G1 X36.916 Y180.755 E.0124
G1 X36.736 Y181.108 E.01242
G1 X36.467 Y181.445 E.01352
G1 X36.137 Y181.717 E.01341
G1 X35.788 Y181.903 E.0124
G1 X35.41 Y182.018 E.01239
G1 X35.018 Y182.059 E.01236
G1 X34.625 Y182.025 E.01237
G1 X34.245 Y181.916 E.0124
G1 X33.892 Y181.736 E.01242
G1 X33.555 Y181.468 E.0135
G1 X33.283 Y181.137 E.01343
G1 X33.097 Y180.788 E.0124
G1 X32.982 Y180.41 E.01239
G1 X32.941 Y180.018 E.01236
G1 X32.975 Y179.625 E.01237
G1 X33.084 Y179.245 E.0124
G1 X33.264 Y178.892 E.01242
G1 X33.532 Y178.555 E.0135
G1 X33.863 Y178.283 E.01343
G1 X34.212 Y178.097 E.0124
G1 X34.59 Y177.982 E.01239
G1 X34.984 Y177.941 E.01242
G1 X35.411 Y177.982 E.01345
G1 X35.788 Y178.097 E.01236
G1 X36.137 Y178.283 E.0124
G1 X36.445 Y178.533 E.01244
G1 X36.515 Y178.618 E.00345
M204 S1000
;WIPE_START
G1 F8640
G1 X36.553 Y178.664 E-.01968
G1 X36.717 Y178.863 E-.08506
G1 X36.903 Y179.212 E-.13045
G1 X37.018 Y179.59 E-.13033
G1 X37.059 Y179.982 E-.13001
G1 X37.025 Y180.375 E-.13012
G1 X36.916 Y180.755 E-.1304
G1 X36.736 Y181.108 E-.13071
G1 X36.467 Y181.445 E-.14223
G1 X36.137 Y181.717 E-.14106
G1 X36.057 Y181.76 E-.02995
;WIPE_END
G1 Z.6 F720
G1 X36.846 Y31.567 F10800
G1 Z.2 F720
G1 E1.2 F3000
M204 S800
;TYPE:Perimeter
G1 F1200
G1 X36.71 Y31.733 E.00673
G1 X36.317 Y32.049 E.01581
G1 X35.901 Y32.262 E.01465
G1 X35.453 Y32.393 E.01463
G1 X34.988 Y32.435 E.01464
G1 X34.519 Y32.387 E.01478
G1 X34.038 Y32.237 E.0158
G1 X33.629 Y32.012 E.01464
G1 X33.267 Y31.71 E.01478
G1 X32.951 Y31.317 E.01581
G1 X32.738 Y30.901 E.01465
G1 X32.607 Y30.453 E.01463
G1 X32.567 Y30.097 E.01123
G1 X32.612 Y29.524 E.01802
G1 X32.747 Y29.077 E.01464
G1 X32.967 Y28.66 E.01478
G1 X33.286 Y28.27 E.0158
G1 X33.648 Y27.975 E.01464
G1 X34.059 Y27.754 E.01463
G1 X34.51 Y27.615 E.0148
G1 X35.012 Y27.565 E.01582
G1 X35.476 Y27.612 E.01462
G1 X35.928 Y27.749 E.01481
G1 X36.371 Y27.988 E.01578
G1 X36.733 Y28.29 E.01478
G1 X37.049 Y28.683 E.01581
G1 X37.262 Y29.099 E.01465
G1 X37.393 Y29.547 E.01463
G1 X37.435 Y30.012 E.01464
G1 X37.388 Y30.476 E.01462
G1 X37.253 Y30.923 E.01464
G1 X37.033 Y31.34 E.01478
G1 X36.885 Y31.521 E.00733
M204 S1000
G1 X36.885 Y31.521 F10800
G1 X36.565 Y31.322
M204 S800
;TYPE:External perimeter
G1 F1200
G1 X36.467 Y31.445 E.00493
G1 X36.137 Y31.717 E.01341
G1 X35.788 Y31.903 E.0124
G1 X35.41 Y32.018 E.01239
G1 X35.018 Y32.059 E.01236
G1 X34.623 Y32.024 E.01243
G1 X34.212 Y31.903 E.01343
G1 X33.863 Y31.717 E.0124
G1 X33.555 Y31.467 E.01244
G1 X33.283 Y31.137 E.01341
G1 X33.097 Y30.788 E.0124
M73 P0 R243
G1 X32.982 Y30.41 E.01239
G1 X32.941 Y30.054 E.01124
G1 X32.975 Y29.625 E.01349
G1 X33.084 Y29.245 E.0124
G1 X33.264 Y28.892 E.01242
G1 X33.531 Y28.557 E.01343
G1 X33.834 Y28.303 E.0124
G1 X34.179 Y28.111 E.01238
G1 X34.556 Y27.989 E.01242
G1 X34.982 Y27.941 E.01344
G1 X35.375 Y27.975 E.01237
G1 X35.756 Y28.085 E.01243
G1 X36.137 Y28.283 E.01346
G1 X36.445 Y28.533 E.01244
G1 X36.717 Y28.863 E.01341
G1 X36.903 Y29.212 E.0124
G1 X37.018 Y29.59 E.01239
G1 X37.059 Y29.982 E.01236
G1 X37.025 Y30.375 E.01237
G1 X36.916 Y30.755 E.0124
G1 X36.736 Y31.108 E.01242
G1 X36.602 Y31.275 E.00671
M204 S1000
;WIPE_START
G1 F8640
G1 X36.565 Y31.322 E-.01973
G1 X36.467 Y31.445 E-.05188
G1 X36.137 Y31.717 E-.14106
G1 X35.788 Y31.903 E-.13045
G1 X35.41 Y32.018 E-.13033
G1 X35.018 Y32.059 E-.13001
G1 X34.623 Y32.024 E-.13081
G1 X34.212 Y31.903 E-.14133
G1 X33.863 Y31.717 E-.13045
G1 X33.555 Y31.467 E-.13085
G1 X33.433 Y31.319 E-.0631
;WIPE_END
G1 Z.6 F720
G1 X214.543 Y32.397 F10800
G1 Z.2 F720
G1 E1.2 F3000
M204 S800
;TYPE:Perimeter
G1 F1200
G1 X214.382 Y32.38 E.00508
G1 X213.938 Y32.237 E.01463
G1 X213.529 Y32.012 E.01464
G1 X213.167 Y31.71 E.01478
G1 X212.851 Y31.317 E.01581
G1 X212.638 Y30.901 E.01465
G1 X212.507 Y30.453 E.01463
G1 X212.465 Y29.983 E.0148
G1 X212.52 Y29.482 E.0158
G1 X212.663 Y29.038 E.01463
G1 X212.888 Y28.629 E.01464
G1 X213.186 Y28.27 E.01463
G1 X213.548 Y27.975 E.01464
G1 X213.959 Y27.754 E.01463
G1 X214.41 Y27.615 E.0148
G1 X214.912 Y27.565 E.01582
G1 X215.376 Y27.612 E.01462
G1 X215.828 Y27.749 E.01481
G1 X216.271 Y27.988 E.01578
G1 X216.633 Y28.29 E.01478
G1 X216.949 Y28.683 E.01581
G1 X217.162 Y29.099 E.01465
G1 X217.293 Y29.547 E.01463
G1 X217.335 Y30.012 E.01464
G1 X217.288 Y30.476 E.01462
G1 X217.153 Y30.923 E.01464
G1 X216.933 Y31.34 E.01478
G1 X216.614 Y31.73 E.0158
G1 X216.248 Y32.028 E.0148
G1 X215.802 Y32.262 E.01579
G1 X215.353 Y32.393 E.01467
G1 X214.883 Y32.435 E.0148
G1 X214.602 Y32.404 E.00886
M204 S1000
G1 X214.602 Y32.404 F10800
G1 X214.604 Y32.029
M204 S800
;TYPE:External perimeter
G1 F1200
G1 X214.489 Y32.018 E.00362
G1 X214.112 Y31.903 E.01236
G1 X213.763 Y31.717 E.0124
G1 X213.455 Y31.467 E.01244
G1 X213.183 Y31.137 E.01341
G1 X212.997 Y30.788 E.0124
G1 X212.882 Y30.41 E.01239
G1 X212.841 Y30.016 E.01242
G1 X212.882 Y29.589 E.01345
G1 X212.997 Y29.212 E.01236
G1 X213.183 Y28.863 E.0124
G1 X213.431 Y28.557 E.01235
G1 X213.734 Y28.303 E.0124
G1 X214.079 Y28.111 E.01238
G1 X214.456 Y27.989 E.01242
G1 X214.882 Y27.941 E.01344
G1 X215.275 Y27.975 E.01237
G1 X215.656 Y28.085 E.01243
G1 X216.037 Y28.283 E.01346
G1 X216.345 Y28.533 E.01244
G1 X216.617 Y28.863 E.01341
G1 X216.803 Y29.212 E.0124
G1 X216.918 Y29.59 E.01239
G1 X216.959 Y29.982 E.01236
G1 X216.925 Y30.375 E.01237
G1 X216.816 Y30.755 E.0124
G1 X216.636 Y31.108 E.01242
G1 X216.369 Y31.443 E.01343
G1 X216.065 Y31.698 E.01244
G1 X215.688 Y31.903 E.01346
G1 X215.31 Y32.018 E.01239
G1 X214.916 Y32.059 E.01242
G1 X214.664 Y32.035 E.00794
M204 S1000
;WIPE_START
G1 F8640
G1 X214.604 Y32.029 E-.01989
G1 X214.489 Y32.018 E-.03811
G1 X214.112 Y31.903 E-.13001
G1 X213.763 Y31.717 E-.13045
G1 X213.455 Y31.467 E-.13085
G1 X213.183 Y31.137 E-.14106
G1 X212.997 Y30.788 E-.13045
G1 X212.882 Y30.41 E-.13033
G1 X212.841 Y30.016 E-.13067
G1 X212.882 Y29.589 E-.1415
G1 X212.95 Y29.367 E-.07668
;WIPE_END
G1 Z.6 F720
G1 X212.753 Y179.07 F10800
G1 Z.2 F720
G1 E1.2 F3000
M204 S800
;TYPE:Perimeter
G1 F1200
G1 X212.763 Y179.038 E.00105
G1 X212.988 Y178.629 E.01464
G1 X213.29 Y178.267 E.01478
G1 X213.683 Y177.951 E.01581
G1 X214.099 Y177.738 E.01465
G1 X214.547 Y177.607 E.01463
G1 X215.012 Y177.565 E.01464
G1 X215.481 Y177.613 E.01478
G1 X215.962 Y177.763 E.0158
G1 X216.371 Y177.988 E.01464
G1 X216.73 Y178.286 E.01463
G1 X217.025 Y178.648 E.01464
G1 X217.246 Y179.059 E.01463
G1 X217.385 Y179.51 E.0148
G1 X217.435 Y180.012 E.01582
G1 X217.388 Y180.476 E.01462
G1 X217.251 Y180.928 E.01481
G1 X217.012 Y181.371 E.01578
G1 X216.71 Y181.733 E.01478
G1 X216.317 Y182.049 E.01581
G1 X215.901 Y182.262 E.01465
G1 X215.559 Y182.37 E.01125
G1 X215.033 Y182.437 E.01663
G1 X214.524 Y182.388 E.01603
G1 X214.077 Y182.253 E.01464
G1 X213.66 Y182.033 E.01478
G1 X213.27 Y181.714 E.0158
G1 X212.975 Y181.352 E.01464
G1 X212.754 Y180.941 E.01463
G1 X212.615 Y180.49 E.0148
G1 X212.565 Y179.983 E.01597
G1 X212.62 Y179.482 E.0158
G1 X212.734 Y179.127 E.01169
M204 S1000
G1 X212.734 Y179.127 F10800
G1 X213.095 Y179.219
M204 S800
;TYPE:External perimeter
G1 F1200
G1 X213.097 Y179.212 E.00023
G1 X213.283 Y178.863 E.0124
G1 X213.533 Y178.555 E.01244
G1 X213.863 Y178.283 E.01341
G1 X214.212 Y178.097 E.0124
G1 X214.59 Y177.982 E.01239
G1 X214.982 Y177.941 E.01236
G1 X215.377 Y177.976 E.01243
G1 X215.788 Y178.097 E.01343
G1 X216.137 Y178.283 E.0124
G1 X216.443 Y178.531 E.01235
G1 X216.697 Y178.834 E.0124
G1 X216.889 Y179.179 E.01238
G1 X217.011 Y179.556 E.01242
G1 X217.059 Y179.982 E.01344
G1 X217.025 Y180.375 E.01237
G1 X216.915 Y180.756 E.01243
G1 X216.717 Y181.137 E.01346
G1 X216.467 Y181.445 E.01244
G1 X216.137 Y181.717 E.01341
G1 X215.788 Y181.903 E.0124
G1 X215.446 Y182.01 E.01124
G1 X215.018 Y182.059 E.01351
G1 X214.625 Y182.025 E.01237
G1 X214.245 Y181.916 E.0124
G1 X213.892 Y181.736 E.01242
G1 X213.557 Y181.469 E.01343
G1 X213.303 Y181.166 E.0124
G1 X213.111 Y180.821 E.01238
G1 X212.989 Y180.444 E.01242
G1 X212.941 Y180.016 E.0135
G1 X212.982 Y179.589 E.01345
G1 X213.078 Y179.277 E.01024
M204 S1000
;WIPE_START
G1 F8640
G1 X213.095 Y179.219 E-.01994
G1 X213.097 Y179.212 E-.0024
G1 X213.283 Y178.863 E-.13045
G1 X213.533 Y178.555 E-.13085
G1 X213.863 Y178.283 E-.14106
G1 X214.212 Y178.097 E-.13045
G1 X214.59 Y177.982 E-.13033
G1 X214.982 Y177.941 E-.13001
G1 X215.377 Y177.976 E-.13081
G1 X215.788 Y178.097 E-.14133
G1 X216.088 Y178.257 E-.11237
;WIPE_END
G1 Z.6 F720
G1 X31.337 Y183.663 F10800
G1 Z.2 F720
G1 E1.2 F3000
M204 S800
;TYPE:Perimeter
G1 F1200
G1 X31.337 Y26.337 E4.93284
G1 X218.663 Y26.337 E5.87347
G1 X218.663 Y27.504 E.03659
G1 X218.663 Y183.663 E4.89625
G1 X31.397 Y183.663 E5.87158
M204 S1000
G1 X30.96 Y184.04 F10800
M73 Q0 S254
M204 S800
;TYPE:External perimeter
G1 F1200
G1 X30.96 Y25.96 E4.95648
G1 X219.04 Y25.96 E5.89711
G1 X219.04 Y27.504 E.04841
G1 X219.04 Y184.04 E4.90807
G1 X31.02 Y184.04 E5.89523
M73 P0 R242
M204 S1000
;WIPE_START
G1 F8640
G1 X30.96 Y184.04 E-.01979
G1 X30.96 Y180.462 E-1.18021
;WIPE_END
G1 Z.6 F720
G1 X218.493 Y27.269 F10800
G1 Z.2 F720
G1 E1.2 F3000
M204 S800
;TYPE:Solid infill
;WIDTH:0.420096
G1 F1200
G1 X217.9 Y26.676 E.0263
G1 X217.367 Y26.676 E.01672
G1 X218.324 Y27.633 E.04245
G1 X218.324 Y28.166 E.01672
G1 X216.834 Y26.676 E.06609
G1 X216.3 Y26.676 E.01675
G1 X218.324 Y28.7 E.08977
G1 X218.324 Y29.233 E.01672
G1 X215.767 Y26.676 E.11341
G1 X215.233 Y26.676 E.01675
G1 X216.046 Y27.489 E.03606
G1 X216.34 Y27.629 E.01021
G1 X216.772 Y27.952 E.01692
G1 X217.152 Y28.38 E.01795
G1 X217.434 Y28.877 E.01792
G1 X218.324 Y29.767 E.03947
G1 X218.324 Y30.3 E.01672
G1 X217.631 Y29.607 E.03074
G1 X217.677 Y29.964 E.01129
G1 X217.66 Y30.17 E.00648
G1 X218.324 Y30.833 E.02943
G1 X218.324 Y31.367 E.01675
G1 X217.593 Y30.637 E.0324
G1 X217.516 Y30.924 E.00932
G1 X217.463 Y31.039 E.00397
G1 X218.324 Y31.9 E.03819
G1 X218.324 Y32.434 E.01675
G1 X217.293 Y31.404 E.04571
G1 X217.067 Y31.711 E.01196
G1 X218.324 Y32.967 E.05573
G1 X218.324 Y33.5 E.01672
G1 X216.815 Y31.992 E.06691
G1 X216.531 Y32.242 E.01187
G1 X218.324 Y34.034 E.0795
G1 X218.324 Y34.567 E.01672
G1 X216.196 Y32.44 E.09436
G1 X216.061 Y32.52 E.00492
G1 X215.825 Y32.602 E.00784
G1 X218.324 Y35.101 E.11084
G1 X218.324 Y35.634 E.01672
G1 X215.407 Y32.718 E.12936
G1 X215.024 Y32.772 E.01213
G1 X214.922 Y32.766 E.0032
G1 X218.324 Y36.167 E.15087
G1 X218.324 Y36.701 E.01675
G1 X214.083 Y32.46 E.1881
M204 S1000
;WIPE_START
G1 F8640
G1 X216.655 Y35.032 E-1.2
;WIPE_END
G1 Z.6 F720
G1 X215.502 Y27.478 F10800
G1 Z.2 F720
G1 E1.2 F3000
M204 S800
G1 F1200
G1 X214.7 Y26.676 E.03557
G1 X214.167 Y26.676 E.01672
G1 X214.725 Y27.235 E.02477
G1 X214.26 Y27.303 E.01474
G1 X213.633 Y26.676 E.02781
G1 X213.1 Y26.676 E.01672
G1 X213.854 Y27.431 E.03346
G1 X213.697 Y27.5 E.00538
G1 X213.506 Y27.616 E.00701
G1 X212.566 Y26.676 E.04169
G1 X212.033 Y26.676 E.01672
G1 X213.184 Y27.828 E.05107
G1 X212.904 Y28.081 E.01184
G1 X211.5 Y26.676 E.06229
G1 X210.966 Y26.676 E.01675
G1 X212.666 Y28.376 E.0754
G1 X212.532 Y28.554 E.00699
G1 X212.459 Y28.703 E.0052
G1 X210.433 Y26.676 E.08988
G1 X209.899 Y26.676 E.01675
G1 X212.29 Y29.067 E.10605
G1 X212.179 Y29.489 E.01369
G1 X209.366 Y26.676 E.12477
G1 X208.833 Y26.676 E.01672
G1 X212.136 Y29.98 E.14652
G1 X212.128 Y30.124 E.00452
G1 X212.191 Y30.568 E.01406
G1 X208.299 Y26.676 E.17262
G1 X207.766 Y26.676 E.01672
G1 X218.324 Y37.234 E.46828
G1 X218.324 Y37.768 E.01675
G1 X207.232 Y26.676 E.49196
G1 X206.699 Y26.676 E.01672
G1 X218.324 Y38.301 E.5156
G1 X218.324 Y38.835 E.01675
G1 X206.165 Y26.676 E.53929
G1 X205.632 Y26.676 E.01672
G1 X218.324 Y39.368 E.56293
G1 X218.324 Y39.901 E.01672
G1 X205.099 Y26.676 E.58657
G1 X204.565 Y26.676 E.01675
G1 X218.324 Y40.435 E.61025
G1 X218.324 Y40.968 E.01672
G1 X204.032 Y26.676 E.63389
G1 X203.498 Y26.676 E.01675
G1 X218.324 Y41.502 E.65758
G1 X218.324 Y42.035 E.01672
G1 X202.965 Y26.676 E.68122
G1 X202.432 Y26.676 E.01672
G1 X218.324 Y42.568 E.70486
G1 X218.324 Y43.102 E.01675
G1 X201.898 Y26.676 E.72854
G1 X201.365 Y26.676 E.01672
G1 X218.324 Y43.635 E.75218
G1 X218.324 Y44.169 E.01675
G1 X200.831 Y26.676 E.77587
G1 X200.298 Y26.676 E.01672
G1 X218.324 Y44.702 E.79951
G1 X218.324 Y45.235 E.01672
M73 P1 R242
G1 X199.765 Y26.676 E.82315
G1 X199.231 Y26.676 E.01675
M73 Q0 S253
G1 X218.324 Y45.769 E.84683
G1 X218.324 Y46.302 E.01672
M73 Q1 S253
G1 X198.698 Y26.676 E.87047
G1 X198.164 Y26.676 E.01675
